assets/icons/change.svg

<svg xmlns="http://www.w3.org/2000/svg" viewBox="0 0 24 24" role="presentation" aria-hidden="true"><path fill-rule="evenodd" clip-rule="evenodd" d="M18.8752 16.5127H17.2477C16.9601 15.6101 16.1227 14.9502 15.1252 14.9502C14.1277 14.9502 13.2909 15.6102 13.0028 16.5127H5.12519C4.75257 16.5127 4.4502 16.8151 4.4502 17.1877C4.4502 17.5603 4.75257 17.8627 5.12519 17.8627H13.0027C13.2903 18.7652 14.1277 19.4252 15.1252 19.4252C16.1227 19.4252 16.9595 18.7652 17.2476 17.8627H18.8752C19.2484 17.8627 19.5502 17.5603 19.5502 17.1877C19.5502 16.8151 19.2485 16.5127 18.8752 16.5127ZM15.1252 15.0002C16.1127 15.0002 16.9402 15.6621 17.2108 16.5627H18.8752C19.2208 16.5627 19.5002 16.8427 19.5002 17.1877C19.5002 17.4788 19.3013 17.7236 19.0315 17.793C19.3012 17.7235 19.5 17.4788 19.5 17.1878C19.5 16.8428 19.2206 16.5627 18.875 16.5627H17.2106C16.94 15.6621 16.1125 15.0002 15.125 15.0002C14.9457 15.0002 14.7716 15.0221 14.6053 15.0632C14.7717 15.022 14.9458 15.0002 15.1252 15.0002ZM13.0394 16.5627H5.12519C5.07327 16.5627 5.02282 16.569 4.97458 16.581C5.02276 16.5691 5.07314 16.5627 5.12499 16.5627H13.0394C13.0394 16.5627 13.0394 16.5627 13.0394 16.5627ZM15.6342 19.3149C16.389 19.1324 16.9877 18.5533 17.2108 17.8127H17.2106C16.9876 18.5533 16.3889 19.1324 15.6342 19.3149ZM15.1252 18.0752C14.6359 18.0752 14.2377 17.677 14.2377 17.1877C14.2377 16.6984 14.6359 16.3002 15.1252 16.3002C15.6145 16.3002 16.0127 16.6984 16.0127 17.1877C16.0127 17.677 15.6144 18.0752 15.1252 18.0752ZM15.1252 18.1252C14.6083 18.1252 14.1877 17.7046 14.1877 17.1877C14.1877 16.7486 14.4913 16.379 14.8995 16.2777C14.4912 16.3789 14.1875 16.7486 14.1875 17.1878C14.1875 17.7046 14.6081 18.1253 15.125 18.1253C15.2008 18.1253 15.2744 18.1162 15.345 18.0992C15.2745 18.1162 15.2009 18.1252 15.1252 18.1252Z" fill="currentColor"/><path fill-rule="evenodd" clip-rule="evenodd" d="M18.8752 6.51269H17.2477C16.9595 5.61018 16.1228 4.9502 15.1252 4.9502C14.1276 4.9502 13.2909 5.61018 13.0027 6.51269H5.12519C4.75257 6.51269 4.4502 6.81506 4.4502 7.18768C4.4502 7.56029 4.75257 7.86267 5.12519 7.86267H13.0027C13.2909 8.7652 14.1276 9.42519 15.1252 9.42519C16.1228 9.42519 16.9595 8.7652 17.2477 7.8627H18.8752C19.2485 7.8627 19.5502 7.56029 19.5502 7.18771C19.5502 6.81513 19.2485 6.51269 18.8752 6.51269ZM15.1252 5.0002C16.1127 5.0002 16.9396 5.66207 17.2108 6.56269H18.8752C19.2208 6.56269 19.5002 6.84271 19.5002 7.18771C19.5002 7.47341 19.3086 7.71453 19.0465 7.78897C19.3085 7.71447 19.5 7.47339 19.5 7.18775C19.5 6.84275 19.2206 6.56273 18.875 6.56273H17.2106C16.9394 5.66212 16.1125 5.00024 15.125 5.00024C14.9418 5.00024 14.7642 5.02302 14.5945 5.06588C14.7642 5.02299 14.9419 5.0002 15.1252 5.0002ZM13.0394 6.56269H5.12519C5.07327 6.56269 5.02282 6.56903 4.97458 6.58098C5.02276 6.56906 5.07314 6.56273 5.12499 6.56273H13.0394C13.0394 6.56272 13.0394 6.5627 13.0394 6.56269ZM15.6557 9.30955C16.4004 9.1214 16.9899 8.54626 17.2108 7.81274H17.2106C16.9897 8.54622 16.4003 9.12135 15.6557 9.30955ZM15.1252 8.07518C14.6359 8.07518 14.2377 7.67695 14.2377 7.18768C14.2377 6.69841 14.6359 6.30018 15.1252 6.30018C15.6145 6.30018 16.0127 6.69841 16.0127 7.18768C16.0127 7.67695 15.6144 8.07518 15.1252 8.07518ZM15.1252 8.12518C14.6083 8.12518 14.1877 7.70456 14.1877 7.18768C14.1877 6.75058 14.4885 6.38233 14.8939 6.27905C14.4884 6.38226 14.1875 6.75056 14.1875 7.18772C14.1875 7.70461 14.6081 8.12522 15.125 8.12522C15.2048 8.12522 15.2823 8.1152 15.3563 8.09635C15.2823 8.11517 15.2049 8.12518 15.1252 8.12518Z" fill="currentColor"/><path fill-rule="evenodd" clip-rule="evenodd" d="M18.8752 11.5127H10.9977C10.7095 10.6102 9.87277 9.9502 8.87522 9.9502C7.87766 9.9502 7.04089 10.6102 6.75276 11.5127H5.12519C4.75257 11.5127 4.4502 11.8151 4.4502 12.1877C4.4502 12.5603 4.75257 12.8627 5.12519 12.8627H6.75273C7.04089 13.7652 7.87763 14.4252 8.87519 14.4252C9.87274 14.4252 10.7095 13.7652 10.9976 12.8627H18.8752C19.2484 12.8627 19.5502 12.5603 19.5502 12.1877C19.5502 11.8151 19.2485 11.5127 18.8752 11.5127ZM8.87522 10.0002C9.8627 10.0002 10.6896 10.6621 10.9608 11.5627H18.8752C19.2208 11.5627 19.5002 11.8427 19.5002 12.1877C19.5002 12.4734 19.3086 12.7145 19.0464 12.7889C19.3085 12.7144 19.5 12.4734 19.5 12.1877C19.5 11.8427 19.2206 11.5627 18.875 11.5627H10.9606C10.6894 10.6621 9.8625 10.0002 8.87502 10.0002C8.69569 10.0002 8.52165 10.0221 8.35528 10.0632C8.52171 10.022 8.69581 10.0002 8.87522 10.0002ZM6.78942 11.5627H5.12519C5.07192 11.5627 5.0202 11.5694 4.97082 11.5819C5.02014 11.5694 5.07179 11.5627 5.12499 11.5627H6.7894C6.78941 11.5627 6.78941 11.5627 6.78942 11.5627ZM9.40565 14.3095C10.1503 14.1214 10.7399 13.5462 10.9608 12.8127H10.9606C10.7397 13.5462 10.1503 14.1213 9.40565 14.3095ZM8.87519 13.0752C8.38592 13.0752 7.98769 12.677 7.98769 12.1877C7.98769 11.6984 8.38592 11.3002 8.87519 11.3002C9.36446 11.3002 9.76269 11.6984 9.76269 12.1877C9.76269 12.677 9.36446 13.0752 8.87519 13.0752ZM8.87519 13.1252C8.3583 13.1252 7.93769 12.7046 7.93769 12.1877C7.93769 11.7506 8.23847 11.3823 8.64389 11.2791C8.23837 11.3823 7.93749 11.7506 7.93749 12.1877C7.93749 12.7046 8.35811 13.1252 8.87499 13.1252C8.95478 13.1252 9.03227 13.1152 9.10628 13.0964C9.03233 13.1152 8.9549 13.1252 8.87519 13.1252Z" fill="currentColor"/></svg>

<svg xmlns="http://www.w3.org/2000/svg" aria-hidden="true" viewBox="0 0 24 24"><path fill="currentColor" fill-rule="evenodd" d="M18.875 16.513h-1.627a2.23 2.23 0 0 0-2.123-1.563c-.997 0-1.834.66-2.122 1.563H5.125a.675.675 0 0 0 0 1.35h7.878a2.23 2.23 0 0 0 2.122 1.562c.998 0 1.834-.66 2.123-1.562h1.627a.675.675 0 1 0 0-1.35M15.125 15c.988 0 1.815.662 2.086 1.563h1.664-1.664A2.18 2.18 0 0 0 15.125 15m-2.086 1.563H5.125zm2.086 1.512a.889.889 0 0 1 0-1.775.889.889 0 0 1 0 1.775m3.75-11.562h-1.627a2.23 2.23 0 0 0-2.123-1.563c-.997 0-1.834.66-2.122 1.563H5.125a.675.675 0 0 0 0 1.35h7.878a2.23 2.23 0 0 0 2.122 1.562c.998 0 1.834-.66 2.123-1.562h1.627a.675.675 0 1 0 0-1.35M15.125 5c.988 0 1.815.662 2.086 1.563h1.664-1.664A2.18 2.18 0 0 0 15.125 5M13.04 6.563H5.125zm2.087 1.512a.889.889 0 0 1 0-1.775.889.889 0 0 1 0 1.775m3.748 3.438h-7.877A2.23 2.23 0 0 0 8.875 9.95c-.997 0-1.834.66-2.122 1.563H5.125a.675.675 0 0 0 0 1.35h1.628a2.23 2.23 0 0 0 2.122 1.562c.998 0 1.835-.66 2.123-1.562h7.877a.675.675 0 1 0 0-1.35M8.875 10c.988 0 1.815.662 2.086 1.563h7.914-7.914A2.18 2.18 0 0 0 8.875 10M6.79 11.563H5.125zm2.087 1.512a.889.889 0 0 1 0-1.775.889.889 0 0 1 0 1.775m0 .05" clip-rule="evenodd"/></svg>
